source/work/images/artifact_iconography.svg

<svg xmlns="http://www.w3.org/2000/svg" width="64" height="64" viewBox="0 0 64 64"><style type="text/css">.frame{fill:#FFFFFF;} .content{opacity:0.5;fill:#FFFFFF;}</style><path class="frame" d="M60 3h-56c-1.657 0-3 1.343-3 3v45c0 1.657 1.343 3 3 3h21v6h-4.5c-.276 0-.5.224-.5.5s.224.5.5.5h23c.276 0 .5-.224.5-.5s-.224-.5-.5-.5h-4.5v-6h21c1.657 0 3-1.343 3-3v-45c0-1.657-1.343-3-3-3zm-22 57h-12v-6h12v6zm24-9c0 1.103-.897 2-2 2h-56c-1.103 0-2-.897-2-2v-6h60v6zm0-7h-60v-38c0-1.103.897-2 2-2h56c1.103 0 2 .897 2 2v38z"/><path class="content" d="M14 8h-6c-1.105 0-2 .895-2 2v6c0 1.105.895 2 2 2h6c1.105 0 2-.895 2-2v-6c0-1.105-.895-2-2-2zm1 2v6l-.049.244-3.244-3.244 3.244-3.244.049.244zm-1-1l.244.049-3.244 3.244-3.244-3.244.244-.049h6zm-6.951 7.244l-.049-.244v-6l.049-.244 3.244 3.244-3.244 3.244zm.951.756l-.244-.049 3.244-3.244 3.244 3.244-.244.049h-6zm20-9h-6c-1.105 0-2 .895-2 2v6c0 1.105.895 2 2 2h6c1.105 0 2-.895 2-2v-6c0-1.105-.895-2-2-2zm1 2v6l-.049.244-3.244-3.244 3.244-3.244.049.244zm-1-1l.244.049-3.244 3.244-3.244-3.244.244-.049h6zm-6.951 7.244l-.049-.244v-6l.049-.244 3.244 3.244-3.244 3.244zm.951.756l-.244-.049 3.244-3.244 3.244 3.244-.244.049h-6zm20-9h-6c-1.105 0-2 .895-2 2v6c0 1.105.895 2 2 2h6c1.105 0 2-.895 2-2v-6c0-1.105-.895-2-2-2zm1 2v6l-.049.244-3.244-3.244 3.244-3.244.049.244zm-1-1l.244.049-3.244 3.244-3.244-3.244.244-.049h6zm-6.951 7.244l-.049-.244v-6l.049-.244 3.244 3.244-3.244 3.244zm.951.756l-.244-.049 3.244-3.244 3.244 3.244-.244.049h-6zm20-9h-6c-1.105 0-2 .895-2 2v6c0 1.105.895 2 2 2h6c1.105 0 2-.895 2-2v-6c0-1.105-.895-2-2-2zm1 2v6l-.049.244-3.244-3.244 3.244-3.244.049.244zm-1-1l.244.049-3.244 3.244-3.244-3.244.244-.049h6zm-6.951 7.244l-.049-.244v-6l.049-.244 3.244 3.244-3.244 3.244zm.951.756l-.244-.049 3.244-3.244 3.244 3.244-.244.049h-6zm-36 9h-6c-1.105 0-2 .895-2 2v6c0 1.105.895 2 2 2h6c1.105 0 2-.895 2-2v-6c0-1.105-.895-2-2-2zm1 2v6l-.049.244-3.244-3.244 3.244-3.244.049.244zm-1-1l.244.049-3.244 3.244-3.244-3.244.244-.049h6zm-6.951 7.244l-.049-.244v-6l.049-.244 3.244 3.244-3.244 3.244zm.951.756l-.244-.049 3.244-3.244 3.244 3.244-.244.049h-6zm20-9h-6c-1.105 0-2 .895-2 2v6c0 1.105.895 2 2 2h6c1.105 0 2-.895 2-2v-6c0-1.105-.895-2-2-2zm1 2v6l-.049.244-3.244-3.244 3.244-3.244.049.244zm-1-1l.244.049-3.244 3.244-3.244-3.244.244-.049h6zm-6.951 7.244l-.049-.244v-6l.049-.244 3.244 3.244-3.244 3.244zm.951.756l-.244-.049 3.244-3.244 3.244 3.244-.244.049h-6zm20-9h-6c-1.105 0-2 .895-2 2v6c0 1.105.895 2 2 2h6c1.105 0 2-.895 2-2v-6c0-1.105-.895-2-2-2zm1 2v6l-.049.244-3.244-3.244 3.244-3.244.049.244zm-1-1l.244.049-3.244 3.244-3.244-3.244.244-.049h6zm-6.951 7.244l-.049-.244v-6l.049-.244 3.244 3.244-3.244 3.244zm.951.756l-.244-.049 3.244-3.244 3.244 3.244-.244.049h-6zm20-9h-6c-1.105 0-2 .895-2 2v6c0 1.105.895 2 2 2h6c1.105 0 2-.895 2-2v-6c0-1.105-.895-2-2-2zm1 2v6l-.049.244-3.244-3.244 3.244-3.244.049.244zm-1-1l.244.049-3.244 3.244-3.244-3.244.244-.049h6zm-6.951 7.244l-.049-.244v-6l.049-.244 3.244 3.244-3.244 3.244zm.951.756l-.244-.049 3.244-3.244 3.244 3.244-.244.049h-6zm-43.5-14c-.276 0-.5-.224-.5-.5s.224-.5.5-.5h6c.276 0 .5.224.5.5s-.224.5-.5.5h-6zm14 0c-.276 0-.5-.224-.5-.5s.224-.5.5-.5h6c.276 0 .5.224.5.5s-.224.5-.5.5h-6zm14 0c-.276 0-.5-.224-.5-.5s.224-.5.5-.5h6c.276 0 .5.224.5.5s-.224.5-.5.5h-6zm14 0c-.276 0-.5-.224-.5-.5s.224-.5.5-.5h6c.276 0 .5.224.5.5s-.224.5-.5.5h-6zm-35.5 17.5c0 .276-.224.5-.5.5h-6c-.276 0-.5-.224-.5-.5s.224-.5.5-.5h6c.276 0 .5.224.5.5zm14 0c0 .276-.224.5-.5.5h-6c-.276 0-.5-.224-.5-.5s.224-.5.5-.5h6c.276 0 .5.224.5.5zm14 0c0 .276-.224.5-.5.5h-6c-.276 0-.5-.224-.5-.5s.224-.5.5-.5h6c.276 0 .5.224.5.5zm14 0c0 .276-.224.5-.5.5h-6c-.276 0-.5-.224-.5-.5s.224-.5.5-.5h6c.276 0 .5.224.5.5z"/></svg>

<?xml version="1.0" encoding="utf-8"?>
<!-- Generator: Adobe Illustrator 19.2.1, SVG Export Plug-In . SVG Version: 6.00 Build 0)  -->
<svg version="1.1" id="icons" xmlns="http://www.w3.org/2000/svg" xmlns:xlink="http://www.w3.org/1999/xlink" x="0px" y="0px"
	 width="64px" height="64px" viewBox="0 0 64 64" style="enable-background:new 0 0 64 64;" xml:space="preserve">
<style type="text/css">
	.frame{fill:#FFFFFF;}
	.content{opacity:0.5;fill:#FFFFFF;}
</style>
<path class="frame" d="M60,3H4C2.343,3,1,4.343,1,6v45c0,1.657,1.343,3,3,3h21v6h-4.5c-0.276,0-0.5,0.224-0.5,0.5
	c0,0.276,0.224,0.5,0.5,0.5H25h14h4.5c0.276,0,0.5-0.224,0.5-0.5c0-0.276-0.224-0.5-0.5-0.5H39v-6h21c1.657,0,3-1.343,3-3V6
	C63,4.343,61.657,3,60,3z M38,60H26v-6h12V60z M62,51c0,1.103-0.897,2-2,2H39H25H4c-1.103,0-2-0.897-2-2v-6h60V51z M62,44H2V6
	c0-1.103,0.897-2,2-2h56c1.103,0,2,0.897,2,2V44z"/>
<path class="content" d="M14,8H8c-1.105,0-2,0.895-2,2v6c0,1.105,0.895,2,2,2h6c1.105,0,2-0.895,2-2v-6C16,8.895,15.105,8,14,8z
	 M15,10v6c0,0.086-0.029,0.164-0.049,0.244L11.707,13l3.244-3.244C14.971,9.836,15,9.914,15,10z M14,9
	c0.086,0,0.164,0.029,0.244,0.049L11,12.293L7.756,9.049C7.836,9.029,7.914,9,8,9H14z M7.049,16.244C7.029,16.164,7,16.086,7,16v-6
	c0-0.086,0.029-0.164,0.049-0.244L10.293,13L7.049,16.244z M8,17c-0.086,0-0.164-0.029-0.244-0.049L11,13.707l3.244,3.244
	C14.164,16.971,14.086,17,14,17H8z M28,8h-6c-1.105,0-2,0.895-2,2v6c0,1.105,0.895,2,2,2h6c1.105,0,2-0.895,2-2v-6
	C30,8.895,29.105,8,28,8z M29,10v6c0,0.086-0.029,0.164-0.049,0.244L25.707,13l3.244-3.244C28.971,9.836,29,9.914,29,10z M28,9
	c0.086,0,0.164,0.029,0.244,0.049L25,12.293l-3.244-3.244C21.836,9.029,21.914,9,22,9H28z M21.049,16.244
	C21.029,16.164,21,16.086,21,16v-6c0-0.086,0.029-0.164,0.049-0.244L24.293,13L21.049,16.244z M22,17
	c-0.086,0-0.164-0.029-0.244-0.049L25,13.707l3.244,3.244C28.164,16.971,28.086,17,28,17H22z M42,8h-6c-1.105,0-2,0.895-2,2v6
	c0,1.105,0.895,2,2,2h6c1.105,0,2-0.895,2-2v-6C44,8.895,43.105,8,42,8z M43,10v6c0,0.086-0.029,0.164-0.049,0.244L39.707,13
	l3.244-3.244C42.971,9.836,43,9.914,43,10z M42,9c0.086,0,0.164,0.029,0.244,0.049L39,12.293l-3.244-3.244
	C35.836,9.029,35.914,9,36,9H42z M35.049,16.244C35.029,16.164,35,16.086,35,16v-6c0-0.086,0.029-0.164,0.049-0.244L38.293,13
	L35.049,16.244z M36,17c-0.086,0-0.164-0.029-0.244-0.049L39,13.707l3.244,3.244C42.164,16.971,42.086,17,42,17H36z M56,8h-6
	c-1.105,0-2,0.895-2,2v6c0,1.105,0.895,2,2,2h6c1.105,0,2-0.895,2-2v-6C58,8.895,57.105,8,56,8z M57,10v6
	c0,0.086-0.029,0.164-0.049,0.244L53.707,13l3.244-3.244C56.971,9.836,57,9.914,57,10z M56,9c0.086,0,0.164,0.029,0.244,0.049
	L53,12.293l-3.244-3.244C49.836,9.029,49.914,9,50,9H56z M49.049,16.244C49.029,16.164,49,16.086,49,16v-6
	c0-0.086,0.029-0.164,0.049-0.244L52.293,13L49.049,16.244z M50,17c-0.086,0-0.164-0.029-0.244-0.049L53,13.707l3.244,3.244
	C56.164,16.971,56.086,17,56,17H50z M14,26H8c-1.105,0-2,0.895-2,2v6c0,1.105,0.895,2,2,2h6c1.105,0,2-0.895,2-2v-6
	C16,26.895,15.105,26,14,26z M15,28v6c0,0.086-0.029,0.164-0.049,0.244L11.707,31l3.244-3.244C14.971,27.836,15,27.914,15,28z
	 M14,27c0.086,0,0.164,0.029,0.244,0.049L11,30.293l-3.244-3.244C7.836,27.029,7.914,27,8,27H14z M7.049,34.244
	C7.029,34.164,7,34.086,7,34v-6c0-0.086,0.029-0.164,0.049-0.244L10.293,31L7.049,34.244z M8,35c-0.086,0-0.164-0.029-0.244-0.049
	L11,31.707l3.244,3.244C14.164,34.971,14.086,35,14,35H8z M28,26h-6c-1.105,0-2,0.895-2,2v6c0,1.105,0.895,2,2,2h6
	c1.105,0,2-0.895,2-2v-6C30,26.895,29.105,26,28,26z M29,28v6c0,0.086-0.029,0.164-0.049,0.244L25.707,31l3.244-3.244
	C28.971,27.836,29,27.914,29,28z M28,27c0.086,0,0.164,0.029,0.244,0.049L25,30.293l-3.244-3.244C21.836,27.029,21.914,27,22,27H28z
	 M21.049,34.244C21.029,34.164,21,34.086,21,34v-6c0-0.086,0.029-0.164,0.049-0.244L24.293,31L21.049,34.244z M22,35
	c-0.086,0-0.164-0.029-0.244-0.049L25,31.707l3.244,3.244C28.164,34.971,28.086,35,28,35H22z M42,26h-6c-1.105,0-2,0.895-2,2v6
	c0,1.105,0.895,2,2,2h6c1.105,0,2-0.895,2-2v-6C44,26.895,43.105,26,42,26z M43,28v6c0,0.086-0.029,0.164-0.049,0.244L39.707,31
	l3.244-3.244C42.971,27.836,43,27.914,43,28z M42,27c0.086,0,0.164,0.029,0.244,0.049L39,30.293l-3.244-3.244
	C35.836,27.029,35.914,27,36,27H42z M35.049,34.244C35.029,34.164,35,34.086,35,34v-6c0-0.086,0.029-0.164,0.049-0.244L38.293,31
	L35.049,34.244z M36,35c-0.086,0-0.164-0.029-0.244-0.049L39,31.707l3.244,3.244C42.164,34.971,42.086,35,42,35H36z M56,26h-6
	c-1.105,0-2,0.895-2,2v6c0,1.105,0.895,2,2,2h6c1.105,0,2-0.895,2-2v-6C58,26.895,57.105,26,56,26z M57,28v6
	c0,0.086-0.029,0.164-0.049,0.244L53.707,31l3.244-3.244C56.971,27.836,57,27.914,57,28z M56,27c0.086,0,0.164,0.029,0.244,0.049
	L53,30.293l-3.244-3.244C49.836,27.029,49.914,27,50,27H56z M49.049,34.244C49.029,34.164,49,34.086,49,34v-6
	c0-0.086,0.029-0.164,0.049-0.244L52.293,31L49.049,34.244z M50,35c-0.086,0-0.164-0.029-0.244-0.049L53,31.707l3.244,3.244
	C56.164,34.971,56.086,35,56,35H50z M6.5,21C6.224,21,6,20.776,6,20.5S6.224,20,6.5,20h6c0.276,0,0.5,0.224,0.5,0.5
	S12.776,21,12.5,21H6.5z M20.5,21c-0.276,0-0.5-0.224-0.5-0.5s0.224-0.5,0.5-0.5h6c0.276,0,0.5,0.224,0.5,0.5S26.776,21,26.5,21
	H20.5z M34.5,21c-0.276,0-0.5-0.224-0.5-0.5s0.224-0.5,0.5-0.5h6c0.276,0,0.5,0.224,0.5,0.5S40.776,21,40.5,21H34.5z M48.5,21
	c-0.276,0-0.5-0.224-0.5-0.5s0.224-0.5,0.5-0.5h6c0.276,0,0.5,0.224,0.5,0.5S54.776,21,54.5,21H48.5z M13,38.5
	c0,0.276-0.224,0.5-0.5,0.5h-6C6.224,39,6,38.776,6,38.5S6.224,38,6.5,38h6C12.776,38,13,38.224,13,38.5z M27,38.5
	c0,0.276-0.224,0.5-0.5,0.5h-6c-0.276,0-0.5-0.224-0.5-0.5s0.224-0.5,0.5-0.5h6C26.776,38,27,38.224,27,38.5z M41,38.5
	c0,0.276-0.224,0.5-0.5,0.5h-6c-0.276,0-0.5-0.224-0.5-0.5s0.224-0.5,0.5-0.5h6C40.776,38,41,38.224,41,38.5z M55,38.5
	c0,0.276-0.224,0.5-0.5,0.5h-6c-0.276,0-0.5-0.224-0.5-0.5s0.224-0.5,0.5-0.5h6C54.776,38,55,38.224,55,38.5z"/>
</svg>
